X:1
T:Repose (Blackmer), LMD
T:Repose (Blackmer), LMD
T:Francis Augustus Blackmer, 1915
T:Public Domain Courtesy of the Cyber Hymnal™
C:Francis Augustus Blackmer, 1915
Z:Public Domain
Z:Courtesy of the Cyber Hymnal™
%%score ( 1 2 ) ( 3 4 )
L:1/8
Q:1/4=185
M:9/4
K:G
V:1 treble 
V:2 treble 
V:3 bass 
V:4 bass 
V:1
 [DB]2 [DB]2 [DB]2 | [DB]6 [EG]6 (A2 G2) [CE]2 | [B,D]6- [B,D]4 z2 [Dc]2 [Dc]2 [Dc]2 | %3
 [Dc]6 [FA]6 (d2 c2) A2 | [GB]6- [GB]4 z2 [DB]2 [DB]2 [DB]2 | [DB]6 [EG]6 (A2 G2) [CE]2 | %6
 [B,D]6- [B,D]4 z2 [Dc]2 [Dc]2 [Dc]2 | ([D-c]2 [Dd]8) D2 [DB]4 [DA]2 | %8
 [DG]6- [DG]4 z2 [Gd]4 [Fd]2 | [Gd]6- [Gd]4 [Gd]2 | (e2 d2) [GB]2 | %11
 [Gd]6- [Gd]4 z2 [Ac]2 [Ac]2 [Ac]2 | [Ac]6- [Ac]4 z2 [Fd]2 [Fd]2 [FA]2 | %13
 [GB]6- [GB]4 z2 [Gd]4 [Fd]2 | [Gd]6- [Gd]4 [Gd]2 (e2 d2) [GB]2 | [Gd]6- [Gd]4 z2 [Ac]4 [Ac]2 | %16
 [Ac]6- [Ac]4 z2 D2 !fermata![GB]2 [FA]2 | G6- G4 z2 |] %18
V:2
 x6 | x12 E4 x2 | x18 | x12 F4 A2 | x18 | x12 E4 x2 | x18 | x10 D2 x6 | x18 | x12 | G4 x2 | x18 | %12
 x18 | x18 | x12 G4 x2 | x18 | x12 D2 x4 | G6- G4 x2 |] %18
V:3
 G,2 G,2 G,2 | G,6 [E,B,]6 [C,C]4 [E,G,]2 | G,6- G,4 z2 [D,A,]2 [D,A,]2 [D,A,]2 | %3
 [F,A,]6 [D,D]6 [D,A,]4 [F,D]2 | [G,D]6- [G,D]4 z2 G,2 G,2 G,2 | G,6 [E,B,]6 [C,C]4 [E,G,]2 | %6
 G,6- G,4 z2 [D,A,]2 [D,A,]2 [D,A,]2 | ([D,-A,]2 [D,B,]8) [D,B,]2 [F,C]4 [F,C]2 | %8
 [G,B,]6- [G,B,]4 z2 [B,D]4 [A,C]2 | [G,B,]6- [G,B,]4 [G,B,]2 | (C2 B,2) [G,D]2 | %11
 [G,B,]6- [G,B,]4 z2 [D,D]2 [D,D]2 [D,D]2 | [F,D]6- [F,D]4 z2 [D,A,]2 [D,A,]2 [D,D]2 | %13
 [G,D]6- [G,D]4 z2 [B,D]4 [A,C]2 | [G,B,]6- [G,B,]4 [G,B,]2 (C2 B,2) [G,D]2 | %15
 [G,B,]6- [G,B,]4 z2 [B,,D]4 [B,,D]2 | [F,D]6- [F,D]4 z2 D,2 !fermata![D,D]2 [D,C]2 | %17
 [G,B,]6- [G,B,]4 z2 |] %18
V:4
 G,2 G,2 G,2 | G,6 x12 | G,6- G,4 x8 | x18 | x12 G,2 G,2 G,2 | G,6 x12 | G,6- G,4 x8 | x18 | x18 | %9
 x12 | G,4 x2 | x18 | x18 | x18 | x12 G,4 x2 | x18 | x12 D,2 x4 | x12 |] %18

